X:2223 
T:Ny Kirree fo Niaghtey
T:(The sheep under the snow) 
C:Traditional
O:Isle of Man
S:Mary Gawne, Peel 
Z:Clague collection
B:Kiaull Vannin #223
N:See also KV 119, 300,301,398 and 407. 
M:3/4 
L:1/8 
Q:120 
K:D 
Bc|d2 F2 FG|A2A2 AF|A2 A2 AF|A4 F^A|B3 A Bc|B2B2 Bc|B2F2 A2|B4 Bc| 
de !fermata!f2 df|e>c !fermata!A2A2|d2e2 f^g|a4 ba|f2 c2B2|A2 B2c2|B2 F2 F^G|B4||
 
